icons/small-2-column-24.svg

<?xml version="1.0" encoding="UTF-8"?><svg id="icons" xmlns="http://www.w3.org/2000/svg" viewBox="0 0 24 24"><defs><style>.cls-1{fill:none;}.cls-1,.cls-2,.cls-3,.cls-4{stroke-width:0px;}.cls-2{opacity:.5;}.cls-3{opacity:.25;}</style></defs><path class="cls-3" d="m15,4.00024v.99976h-1v-.99969h-4.99969l-.00006,2.99994h10.99969v-3h-4.99994Zm0,2.99976h-1v-1h1v1Z"/><rect class="cls-1" width="24" height="24"/><path class="cls-4" d="m23,23H1V1h22v22Zm-21-1h20V2H2v20Zm19-14h-13V3h13v5Zm-12-1h11v-3h-11v3Z"/><path class="cls-2" d="m15,5h-1v-1h1v1Zm0,1h-1v1h1v-1Z"/></svg>

<svg xmlns="http://www.w3.org/2000/svg" viewBox="0 0 24 24"><path d="M15 4v1h-1V4H9v3h11V4h-5zm0 3h-1V6h1v1z" opacity=".25" stroke-width="0"/><path stroke-width="0" fill="none" d="M0 0h24v24H0z"/><path d="M23 23H1V1h22v22zM2 22h20V2H2v20zM21 8H8V3h13v5zM9 7h11V4H9v3z" stroke-width="0"/><path d="M15 5h-1V4h1v1zm0 1h-1v1h1V6z" opacity=".5" stroke-width="0"/></svg>
